X:2
T: Schottisch CFBb chords (align)
M:2/4
L:1/8
K:C %%MIDI gchordon
"C"e>g gg | ef/e/ dc | "G7"B/d/d da | f3G | B2 a>g | fg/f/ ed | "C"c2 ea | \
g3G | e2g>f |
 ef/e/ dc | "G7"B2da | f3G | B2d>a | fg/f/ ed | "C"ce "G7"g>B | \
"C"ce cz |: [K:F] "F"f>d dc | a2gf |
 "C7"e>d dc | b3f | e>d dc | b2ag |1 "F"f>d dc | a3z :|2 \
"F"fc a>g | fa fz |: [K:Bb]  "Eb"g2eg |
 bc'/b/ ag | "Bb"fd' bg | fg/f/ dB | \
"F7"Ac ag | fg/f/ eA |1 "Bb"Bd bg | fg/f/d2 :|2 "Bb"Bd "F7"f>A | "Bb"Bb bz |] 

